X:1
T:Title
L:1/8
Q:1/4=120
M:4/4
K:A
V:1 treble nm="Church Organ, Staff"
V:1
 E2 A2 A2 c2 | A2 G2 BG E2 | f2 e2 c2 d2 | G2 A4 z2 | E2 A2 A2 c2 | A2 G2 BG E2 | f2 e2 c2 d2 | %7
w: By~Tyrolese * * *|||||||
 G2 A4 z2 | c2 B2- B/ z/ G E2 | d2 c2- c/ z/ B A2 | E2 d2- d/ z/ E c2- | cE B4 z2 | E2 A2 A2 c2 | %13
w: ||||||
 A2 G2 BG E2 | f2 e2 c2 d2 | G2 A6 |] %16
w: |||

